**kern	**silbe	**harmony	**phrase	**leadinstrument	**rhyme	**harte
*ICvox	*	*M4/4	*	*	*	*M4/4
*VRlead*VRresponse	*	*	*	*	*	*
*Hstimme	*	*	*	*	*	*
*d:	*	*d:	*d:	*d:	*	*d:
*M4/4	*	*	*	*	*	*
*clefG2	*	*	*	*	*	*
r;	.	1r;	.	r	.	N.C.
=1	=1	=1	=1	=1	=1	=1
*>Letter>A	*>Letter>A	*>Letter>A	*>Letter>A	*>Letter>A	*>Letter>A	*>Letter>A
*>Label>Intro	*>Label>Intro	*>Label>Intro	*>Label>Intro	*>Label>Intro	*>Label>Intro	*>Label>Intro
1r	.	1N	newline	drums	.	N.C.
=2	=2	=2	=2	=2	=2	=2
2r	.	1N	.	drums	.	N.C.
4r	.	.	.	.	.	.
8.r	.	.	.	.	.	.
16~d	Now	.	.	.	.	.
=3	=3	=3	=3	=3	=3	=3
*>Letter>B2	*>Letter>B2	*>Letter>B2	*>Letter>B2	*>Letter>B2	*>Letter>B2	*>Letter>B2
*>Label>Verse	*>Label>Verse	*>Label>Verse	*>Label>Verse	*>Label>Verse	*>Label>Verse	*>Label>Verse
8a	ev-	1N	.	drums	.	N.C.
16g	-ery-	.	.	.	.	.
[16g	-bo-	.	.	.	.	.
16g]	_	.	.	.	.	.
8a	-dy	.	.	.	.	.
16r	.	.	.	.	.	.
2r	.	.	.	.	.	.
=4	=4	=4	=4	=4	=4	=4
8f	have	1N	.	drums	.	N.C.
16d	you	.	.	.	.	.
16d	heard?.	.	.	.	A	.
16c	_	.	.	.	.	.
16A	_	.	.	.	.	.
8r	.	.	.	.	.	.
4.r	.	.	.	.	.	.
16c	If	.	.	.	.	.
16d	you're	.	.	.	.	.
=5	=5	=5	=5	=5	=5	=5
8a	in	1N	.	drums	.	N.C.
16g	the	.	.	.	.	.
16g	game:	.	.	.	.	.
16f	_	.	.	.	.	.
8.d	_	.	.	.	.	.
4.r	.	.	.	.	.	.
16A	then	.	.	.	.	.
16c	the	.	.	.	.	.
=6	=6	=6	=6	=6	=6	=6
8d	stroke's	1N	.	drums	.	N.C.
16d	the	.	.	.	.	.
8.d	word.	.	.	.	A	.
8r	.	.	.	.	.	.
2r	.	.	.	.	.	.
=7	=7	=7	=7	=7	=7	=7
4r	.	1Gm	newline	voice	.	G:5
8r	.	.	.	.	.	.
8f	Don't	.	.	.	.	.
8g	take	.	.	.	.	.
16f	no	.	.	.	.	.
16a	rh-	.	.	.	(B	.
4f	-ythm.	.	.	.	b)	.
=8	=8	=8	=8	=8	=8	=8
4.r	.	1Dm	.	voice	.	D:5
8d	Don't	.	.	.	.	.
8f	take	.	.	.	.	.
8d	no	.	.	.	.	.
16d	style.	.	.	.	C	.
16c	_	.	.	.	.	.
16A	_	.	.	.	.	.
16r	.	.	.	.	.	.
=9	=9	=9	=9	=9	=9	=9
4r	.	1Gm	.	voice	.	G:5
8r	.	.	.	.	.	.
16g	Got-	.	.	.	.	.
16f	-ta	.	.	.	.	.
8g	thirst	.	.	.	.	.
16f	for	.	.	.	.	.
16a	kil-	.	.	.	(B	.
16f	-lin'.	.	.	.	b)	.
8.g	_	.	.	.	.	.
=10	=10	=10	=10	=10	=10	=10
4r	.	4Am	.	voice	.	A:5
8cc	Grab	4Gm	.	voice	.	G:1
8g	your	.	.	.	.	.
4g	vile	4F#m	.	voice	C	F#:1
4a	and.	4Em	.	voice	.	E:1
=11	=11	=11	=11	=11	=11	=11
*>Letter>C	*>Letter>C	*>Letter>C	*>Letter>C	*>Letter>C	*>Letter>C	*>Letter>C
*>Label>Trans	*>Label>Trans	*>Label>Trans	*>Label>Trans	*>Label>Trans	*>Label>Trans	*>Label>Trans
2r	.	4Dm	newline	guitar	.	D:min
.	.	4CM	.	guitar	.	C:maj/2
4r	.	4Dm	.	guitar	.	D:min
4~a	Woo!.	4CM	.	guitar	.	C:maj/2
=12	=12	=12	=12	=12	=12	=12
1r	.	4Dm	.	guitar	.	D:min
.	.	4CM	.	guitar	.	C:maj/2
.	.	4Gm	.	guitar	.	G:5/4
.	.	4Gm	.	guitar	.	G:5
=13	=13	=13	=13	=13	=13	=13
1r	.	4Dm	.	guitar	.	D:min
.	.	4CM	.	guitar	.	C:maj/2
.	.	4Dm	.	guitar	.	D:min
.	.	4CM	.	guitar	.	C:maj/2
=14	=14	=14	=14	=14	=14	=14
2r	.	4Dm	.	guitar	.	D:min
.	.	4CM	.	guitar	.	C:maj/2
4.r	.	4Gm	.	guitar	.	G:5
.	.	4FM	.	guitar	.	F:5
16c	Put	.	.	.	.	.
16c	your	.	.	.	.	.
=15	=15	=15	=15	=15	=15	=15
*>Letter>B	*>Letter>B	*>Letter>B	*>Letter>B	*>Letter>B	*>Letter>B	*>Letter>B
*>Label>Verse	*>Label>Verse	*>Label>Verse	*>Label>Verse	*>Label>Verse	*>Label>Verse	*>Label>Verse
8d	right	1Dm	newline	voice	.	D:min
8d	hand	.	.	.	.	.
4c	out.	.	.	.	D	.
4.r	.	.	.	.	.	.
16d	Give	.	.	.	.	.
16d	a	.	.	.	.	.
=16	=16	=16	=16	=16	=16	=16
8f	firm	2Dm	.	voice	.	D:min
8d	hand-	.	.	.	.	.
8d	-shake.	.	.	.	E	.
8r	.	.	.	.	.	.
2r	.	4Gm	.	voice	.	G:5/4
.	.	4Gm	.	voice	.	G:5
=17	=17	=17	=17	=17	=17	=17
8a	Talk	1Dm	.	voice	.	D:min
16g	to	.	.	.	.	.
16g	me	.	.	.	.	.
16f	_	.	.	.	.	.
8.d	_	.	.	.	.	.
4r	.	.	.	.	.	.
16r	.	.	.	.	.	.
16c	a-	.	.	.	.	.
16c	-bout	.	.	.	D	.
16c	that	.	.	.	.	.
=18	=18	=18	=18	=18	=18	=18
8d	one	1Dm	.	voice	.	D:min
8d	big	.	.	.	.	.
16c	break.	.	.	.	E	.
16F	_	.	.	.	.	.
8r	.	.	.	.	.	.
2r	.	.	.	.	.	.
=19	=19	=19	=19	=19	=19	=19
4r	.	1Gm	newline	voice	.	G:5
8r	.	.	.	.	.	.
16g	Spread	.	.	.	.	.
16f	the	.	.	.	.	.
8g	ear	.	.	.	.	.
16f	po-	.	.	.	.	.
[16a	-llu-	.	.	.	(F	.
16a]	_	.	.	.	.	.
[8.f	-tion	.	.	.	f)	.
=20	=20	=20	=20	=20	=20	=20
16f]	_	1Dm	.	voice	.	D:5
8.r	.	.	.	.	.	.
8r	.	.	.	.	.	.
8d	both	.	.	.	.	.
8f	far	.	.	.	.	.
16f	and	.	.	.	.	.
16d	wide.	.	.	.	G	.
16c	_	.	.	.	.	.
16A	_	.	.	.	.	.
8r	.	.	.	.	.	.
=21	=21	=21	=21	=21	=21	=21
4r	.	1Gm	.	voice	.	G:5
8r	.	.	.	.	.	.
16g	Keep	.	.	.	.	.
16f	your	.	.	.	.	.
8g	con-	.	.	.	.	.
16f	-tri-	.	.	.	.	.
16a	-bu-	.	.	.	(F	.
16f	-tions	.	.	.	f)	.
8.g	_	.	.	.	.	.
=22	=22	=22	=22	=22	=22	=22
4r	.	4Am	.	voice	.	A:5
8cc	by	4Gm	.	voice	.	G:1
8g	your	.	.	.	.	.
4g	side,	4F#m	.	voice	G	F#:1
4f	and	4Em	.	voice	.	E:1
=23	=23	=23	=23	=23	=23	=23
*>Letter>D	*>Letter>D	*>Letter>D	*>Letter>D	*>Letter>D	*>Letter>D	*>Letter>D
*>Label>Chorus	*>Label>Chorus	*>Label>Chorus	*>Label>Chorus	*>Label>Chorus	*>Label>Chorus	*>Label>Chorus
4c	Stroke	4CM	newline	voice	.	C:maj
4d	me.	2.Dm	.	voice	.	D:min
8f	Stroke	.	.	.	.	.
8d	me.	.	.	.	.	.
8r	.	.	.	.	.	.
16r	.	.	.	.	.	.
16g#	Could	.	.	.	.	.
=24	=24	=24	=24	=24	=24	=24
8a	_	2Dm	.	voice	.	D:min
16g	be	.	.	.	.	.
16f	a	.	.	.	.	.
16g	win-	.	.	.	(H	.
16f	-ner	.	.	.	h)	.
16d	boy.	.	.	.	.	.
16d	you	.	.	.	.	.
8f	move	4Gm	.	voice	.	G:5
16d	quite	.	.	.	.	.
16c	a	.	.	.	.	.
16d	well.	4FM	.	voice	.	F:5
16c	_	.	.	.	.	.
16A	_	.	.	.	.	.
16r	.	.	.	.	.	.
=25	=25	=25	=25	=25	=25	=25
4c	Stroke	4CM	.	voice	.	C:maj
4d	me.	2.Dm	.	voice	.	D:min
8f	Stroke	.	.	.	.	.
8d	me.	.	.	.	.	.
4r	.	.	.	.	.	.
=26	=26	=26	=26	=26	=26	=26
8~d	Stroke!.	2Dm	.	voice	.	D:min
8r	.	.	.	.	.	.
4r	.	.	.	.	.	.
2r	.	4Gm	.	voice	.	G:5
.	.	4FM	.	voice	.	F:5
=27	=27	=27	=27	=27	=27	=27
4c	Stroke	4CM	newline	voice	.	C:maj
4d	me.	2.Dm	.	voice	.	D:min
8f	Stroke	.	.	.	.	.
[8d	me.	.	.	.	.	.
16d]	_	.	.	.	.	.
8.r	.	.	.	.	.	.
=28	=28	=28	=28	=28	=28	=28
16r	.	2Dm	.	voice	.	D:min
16a	You	.	.	.	.	.
16g	got	.	.	.	.	.
16f	your	.	.	.	.	.
16g	num-	.	.	.	(H	.
16f	-ber	.	.	.	h)	.
16d	down.	.	.	.	D	.
[16c	_	.	.	.	.	.
8c]	_	4Gm	.	voice	.	G:5
8r	.	.	.	.	.	.
4r	.	4FM	.	voice	.	F:5
=29	=29	=29	=29	=29	=29	=29
4c	Stroke	4CM	.	voice	.	C:maj
4d	me.	2.Dm	.	voice	.	D:min
8f	Stroke	.	.	.	.	.
8d	me.	.	.	.	.	.
8r	.	.	.	.	.	.
16r	.	.	.	.	.	.
16g#	Say	.	.	.	.	.
=30	=30	=30	=30	=30	=30	=30
8a	_	1Dm	.	voice	.	D:min
16g	you're	.	.	.	.	.
16f	a	.	.	.	.	.
16g	win-	.	.	.	(H	.
16f	-ner;	.	.	.	h)	.
16d	but	.	.	.	.	.
[16f	man	.	.	.	.	.
16f]	_	.	.	.	.	.
16d	you're	.	.	.	.	.
16c	just	.	.	.	.	.
16A	a	.	.	.	.	.
16c	sin-	.	.	.	(H	.
16A	-ner	.	.	.	h)	.
8F	now.	.	.	.	D	.
=31	=31	=31	=31	=31	=31	=31
*>Letter>C	*>Letter>C	*>Letter>C	*>Letter>C	*>Letter>C	*>Letter>C	*>Letter>C
*>Label>Trans	*>Label>Trans	*>Label>Trans	*>Label>Trans	*>Label>Trans	*>Label>Trans	*>Label>Trans
1r	.	4Dm	newline	guitar	.	D:min
.	.	4CM	.	guitar	.	C:maj/2
.	.	4Dm	.	guitar	.	D:min
.	.	4CM	.	guitar	.	C:maj/2
=32	=32	=32	=32	=32	=32	=32
1r	.	4Dm	.	guitar	.	D:min
.	.	4CM	.	guitar	.	C:maj/2
.	.	4Gm	.	guitar	.	G:5/4
.	.	4Gm	.	guitar	.	G:5
=33	=33	=33	=33	=33	=33	=33
1r	.	4Dm	.	guitar	.	D:min
.	.	4CM	.	guitar	.	C:maj/2
.	.	4Dm	.	guitar	.	D:min
.	.	4CM	.	guitar	.	C:maj/2
=34	=34	=34	=34	=34	=34	=34
2r	.	4Dm	.	guitar	.	D:min
.	.	4CM	.	guitar	.	C:maj/2
4.r	.	4Gm	.	guitar	.	G:5
.	.	4FM	.	guitar	.	F:5
16c	Put	.	.	.	.	.
16c	your	.	.	.	.	.
=35	=35	=35	=35	=35	=35	=35
*>Letter>B	*>Letter>B	*>Letter>B	*>Letter>B	*>Letter>B	*>Letter>B	*>Letter>B
*>Label>Verse	*>Label>Verse	*>Label>Verse	*>Label>Verse	*>Label>Verse	*>Label>Verse	*>Label>Verse
8c	left	1Dm	newline	voice	.	D:min
16c	foot	.	.	.	.	.
[16c	out.	.	.	.	D	.
8c]	_	.	.	.	.	.
8r	.	.	.	.	.	.
4r	.	.	.	.	.	.
8r	.	.	.	.	.	.
16c	Keep	.	.	.	.	.
16d	it	.	.	.	.	.
=36	=36	=36	=36	=36	=36	=36
8a	all	2Dm	.	voice	.	D:min
16g	in	.	.	.	.	.
16g	place.	.	.	.	I	.
8a	_	.	.	.	.	.
8r	.	.	.	.	.	.
2r	.	4Gm	.	voice	.	G:5/4
.	.	4Gm	.	voice	.	G:5
=37	=37	=37	=37	=37	=37	=37
8a	Work	1Dm	.	voice	.	D:min
16g	your	.	.	.	.	.
16g	way	.	.	.	.	.
16f	_	.	.	.	.	.
8.d	_	.	.	.	.	.
4.r	.	.	.	.	.	.
8c	right	.	.	.	.	.
=38	=38	=38	=38	=38	=38	=38
16d	in-	1Dm	.	voice	.	D:min
16d	-to	.	.	.	.	.
8d	my	.	.	.	.	.
16c	face.	.	.	.	I	.
16F	_	.	.	.	.	.
8r	.	.	.	.	.	.
2r	.	.	.	.	.	.
=39	=39	=39	=39	=39	=39	=39
4r	.	1Gm	newline	voice	.	G:5
8r	.	.	.	.	.	.
16g	First	.	.	.	.	.
16f	you	.	.	.	.	.
8g	try	.	.	.	.	.
16f	to	.	.	.	.	.
[16a	bed	.	.	.	J	.
16a]	_	.	.	.	.	.
8.f	me.	.	.	.	.	.
=40	=40	=40	=40	=40	=40	=40
4r	.	1Dm	.	voice	.	D:5
16r	.	.	.	.	.	.
16c	You	.	.	.	.	.
16c	make	.	.	.	.	.
16c	my	.	.	.	.	.
8c	back-	.	.	.	.	.
8d	-bone	.	.	.	.	.
4f	slide;	.	.	.	G	.
=41	=41	=41	=41	=41	=41	=41
4r	.	1Gm	.	voice	.	G:5
16r	.	.	.	.	.	.
16f	but	.	.	.	.	.
16g	when	.	.	.	.	.
16f	you	.	.	.	.	.
8g	find	.	.	.	.	.
16f	you	.	.	.	.	.
8a	bled	.	.	.	J	.
16f	me:	.	.	.	.	.
8g	_	.	.	.	.	.
=42	=42	=42	=42	=42	=42	=42
4r	.	4Am	.	voice	.	A:5
16cc	slip	4Gm	.	voice	.	G:1
8.g	on	.	.	.	.	.
4g	by.	4F#m	.	voice	.	F#:1
16~a	Keep	4Em	.	voice	.	E:1
8.~f	on!.	.	.	.	.	.
=43	=43	=43	=43	=43	=43	=43
*>Letter>D	*>Letter>D	*>Letter>D	*>Letter>D	*>Letter>D	*>Letter>D	*>Letter>D
*>Label>Chorus	*>Label>Chorus	*>Label>Chorus	*>Label>Chorus	*>Label>Chorus	*>Label>Chorus	*>Label>Chorus
4c	Stroke	4CM	newline	voice	.	C:maj
4d	me.	2.Dm	.	voice	.	D:min
8f	Stroke	.	.	.	.	.
8d	me.	.	.	.	.	.
8r	.	.	.	.	.	.
16r	.	.	.	.	.	.
16g#	Give	.	.	.	.	.
=44	=44	=44	=44	=44	=44	=44
8a	_	2Dm	.	voice	.	D:min
16g	me	.	.	.	.	.
16f	the	.	.	.	.	.
16g	bus-	.	.	.	.	.
16f	-i-	.	.	.	.	.
16d	-ness	.	.	.	.	.
16d	all	.	.	.	.	.
8f	_	4Gm	.	voice	.	G:5
8d	night	.	.	.	.	.
16d	long.	4FM	.	voice	.	F:5
16c	_	.	.	.	.	.
16A	_	.	.	.	.	.
16r	.	.	.	.	.	.
=45	=45	=45	=45	=45	=45	=45
4c	Stroke	4CM	.	voice	.	C:maj
4d	me.	2.Dm	.	voice	.	D:min
8f	Stroke	.	.	.	.	.
8d	me.	.	.	.	.	.
4r	.	.	.	.	.	.
=46	=46	=46	=46	=46	=46	=46
8~d	Stroke!.	2Dm	.	voice	.	D:min
8r	.	.	.	.	.	.
4r	.	.	.	.	.	.
2r	.	4Gm	.	voice	.	G:5
.	.	4FM	.	voice	.	F:5
=47	=47	=47	=47	=47	=47	=47
4c	Stroke	4CM	newline	voice	.	C:maj
4d	me.	2.Dm	.	voice	.	D:min
8f	Stroke	.	.	.	.	.
8d	me.	.	.	.	.	.
4r	.	.	.	.	.	.
=48	=48	=48	=48	=48	=48	=48
16r	.	2Dm	.	voice	.	D:min
16a	You're	.	.	.	.	.
16g	so	.	.	.	.	.
16f	to-	.	.	.	.	.
16g	-ge-	.	.	.	.	.
16f	-ther	.	.	.	.	.
16d	boy.	.	.	.	.	.
[16c	_	.	.	.	.	.
16c]	_	4Gm	.	voice	.	G:5
16r	.	.	.	.	.	.
8r	.	.	.	.	.	.
4r	.	4FM	.	voice	.	F:5
=49	=49	=49	=49	=49	=49	=49
4c	Stroke	4CM	.	voice	.	C:maj
4d	me.	2.Dm	.	voice	.	D:min
8f	Stroke	.	.	.	.	.
8d	me.	.	.	.	.	.
8r	.	.	.	.	.	.
16r	.	.	.	.	.	.
16g#	Say	.	.	.	.	.
=50	=50	=50	=50	=50	=50	=50
8a	_	1Dm	.	voice	.	D:min
16g	you're	.	.	.	.	.
16f	a	.	.	.	.	.
16g	win-	.	.	.	(H	.
16f	-ner;	.	.	.	h)	.
16d	but	.	.	.	.	.
[16f	man	.	.	.	.	.
16f]	_	.	.	.	.	.
16d	you're	.	.	.	.	.
16c	just	.	.	.	.	.
16A	a	.	.	.	.	.
16c	sin-	.	.	.	(H	.
16A	-ner	.	.	.	h)	.
[8F	now.	.	.	.	D	.
=51	=51	=51	=51	=51	=51	=51
*>Letter>A	*>Letter>A	*>Letter>A	*>Letter>A	*>Letter>A	*>Letter>A	*>Letter>A
*>Label>Interlude	*>Label>Interlude	*>Label>Interlude	*>Label>Interlude	*>Label>Interlude	*>Label>Interlude	*>Label>Interlude
16F]	_	2N	newline	drums	.	N.C.
16r	.	.	.	.	.	.
8r	.	.	.	.	.	.
4r	.	.	.	.	.	.
8~d	Stroke!.	2N	.	drums	.	N.C.
8r	.	.	.	.	.	.
4r	.	.	.	.	.	.
=52	=52	=52	=52	=52	=52	=52
8~d	Stroke!.	2N	.	drums	.	N.C.
8r	.	.	.	.	.	.
4r	.	.	.	.	.	.
8~d	Stroke!.	2N	.	drums	.	N.C.
8r	.	.	.	.	.	.
4r	.	.	.	.	.	.
=53	=53	=53	=53	=53	=53	=53
8~d	Stroke!.	2N	.	drums	.	N.C.
8r	.	.	.	.	.	.
4r	.	.	.	.	.	.
8~d	Stroke!.	2N	.	drums	.	N.C.
8r	.	.	.	.	.	.
4r	.	.	.	.	.	.
=54	=54	=54	=54	=54	=54	=54
8~d	Stroke!.	2N	.	drums	.	N.C.
8r	.	.	.	.	.	.
4r	.	.	.	.	.	.
8~d	Stroke!.	2N	.	drums	.	N.C.
8r	.	.	.	.	.	.
4r	.	.	.	.	.	.
=55	=55	=55	=55	=55	=55	=55
*>Letter>C	*>Letter>C	*>Letter>C	*>Letter>C	*>Letter>C	*>Letter>C	*>Letter>C
*>Label>Trans	*>Label>Trans	*>Label>Trans	*>Label>Trans	*>Label>Trans	*>Label>Trans	*>Label>Trans
1r	.	4Dm	newline	guitar	.	D:min
.	.	4CM	.	guitar	.	C:maj/2
.	.	4Dm	.	guitar	.	D:min
.	.	4CM	.	guitar	.	C:maj/2
=56	=56	=56	=56	=56	=56	=56
1r	.	4Dm	.	guitar	.	D:min
.	.	4CM	.	guitar	.	C:maj/2
.	.	4Gm	.	guitar	.	G:5/4
.	.	4Gm	.	guitar	.	G:5
=57	=57	=57	=57	=57	=57	=57
1r	.	4Dm	.	guitar	.	D:min
.	.	4CM	.	guitar	.	C:maj/2
.	.	4Dm	.	guitar	.	D:min
.	.	4CM	.	guitar	.	C:maj/2
=58	=58	=58	=58	=58	=58	=58
2r	.	4Dm	.	guitar	.	D:min
.	.	4CM	.	guitar	.	C:maj/2
4.r	.	4Gm	.	guitar	.	G:5
.	.	4FM	.	guitar	.	F:5
16a	Bet-	.	.	.	.	.
16g#	-ter	.	.	.	.	.
=59	=59	=59	=59	=59	=59	=59
*>Letter>B	*>Letter>B	*>Letter>B	*>Letter>B	*>Letter>B	*>Letter>B	*>Letter>B
*>Label>Verse	*>Label>Verse	*>Label>Verse	*>Label>Verse	*>Label>Verse	*>Label>Verse	*>Label>Verse
16a	lis-	1Dm	newline	voice	.	D:min
16a	-ten	.	.	.	.	.
8g#	now.	.	.	.	D	.
8a	_	.	.	.	.	.
8r	.	.	.	.	.	.
4r	.	.	.	.	.	.
8r	.	.	.	.	.	.
16c	Said	.	.	.	.	.
16c	it	.	.	.	.	.
=60	=60	=60	=60	=60	=60	=60
8d	ain't	2Dm	.	voice	.	D:min
8f	no	.	.	.	.	.
16d	joke.	.	.	.	K	.
16c	_	.	.	.	.	.
16A	_	.	.	.	.	.
16r	.	.	.	.	.	.
4r	.	4Gm	.	voice	.	G:5/4
16r	.	4Gm	.	voice	.	G:5
16c	You	.	.	.	.	.
16c	let	.	.	.	.	.
16c	you're	.	.	.	.	.
=61	=61	=61	=61	=61	=61	=61
8a	cons-	1Dm	.	voice	.	D:min
16g	-ience	.	.	.	.	.
16g	fail	.	.	.	.	.
16g#	_	.	.	.	.	.
16a	ya.	.	.	.	.	.
8r	.	.	.	.	.	.
4r	.	.	.	.	.	.
8r	.	.	.	.	.	.
8c	Just	.	.	.	.	.
=62	=62	=62	=62	=62	=62	=62
8d	do	1Dm	.	voice	.	D:min
8d	the	.	.	.	.	.
16c	stroke.	.	.	.	K	.
16F	_	.	.	.	.	.
8r	.	.	.	.	.	.
2r	.	.	.	.	.	.
=63	=63	=63	=63	=63	=63	=63
4r	.	1Gm	newline	voice	.	G:5
8r	.	.	.	.	.	.
16g	Don-	.	.	.	.	.
16f	-'tcha	.	.	.	.	.
8g	take	.	.	.	.	.
16f	no	.	.	.	.	.
[16a	chanc-	.	.	.	(L	.
16a]	_	.	.	.	.	.
8.f	-es.	.	.	.	l)	.
=64	=64	=64	=64	=64	=64	=64
4r	.	1Dm	.	voice	.	D:5
8r	.	.	.	.	.	.
16c	Keep	.	.	.	.	.
16c	your	.	.	.	.	.
8c	eye	.	.	.	.	.
8d	on	.	.	.	.	.
16d	top.	.	.	.	M	.
16r	.	.	.	.	.	.
8r	.	.	.	.	.	.
=65	=65	=65	=65	=65	=65	=65
4r	.	1Gm	.	voice	.	G:5
8r	.	.	.	.	.	.
16g	Do	.	.	.	.	.
16f	your	.	.	.	.	.
8g	fan-	.	.	.	(L	.
16f	-cy	.	.	.	l)	.
8a	danc-	.	.	.	(L	.
16f	-es.	.	.	.	l)	.
8g	_	.	.	.	.	.
=66	=66	=66	=66	=66	=66	=66
4r	.	4Am	.	voice	.	A:5
16cc	You	4Gm	.	voice	.	G:1
8.cc	can't	.	.	.	.	.
4g	stop.	4F#m	.	voice	M	F#:1
16~a	You	4Em	.	voice	.	E:1
8.~f	just	.	.	.	.	.
=67	=67	=67	=67	=67	=67	=67
*>Letter>D	*>Letter>D	*>Letter>D	*>Letter>D	*>Letter>D	*>Letter>D	*>Letter>D
*>Label>Chorus	*>Label>Chorus	*>Label>Chorus	*>Label>Chorus	*>Label>Chorus	*>Label>Chorus	*>Label>Chorus
4c	Stroke	1Dm	newline	voice	.	D:min
4d	me.	.	.	.	.	.
8f	Stroke	.	.	.	.	.
8d	me.	.	.	.	.	.
4r	.	.	.	.	.	.
=68	=68	=68	=68	=68	=68	=68
8~d	Stroke!.	1Dm	.	voice	.	D:min
8r	.	.	.	.	.	.
4r	.	.	.	.	.	.
8~d	Stroke!.	.	.	.	.	.
8r	.	.	.	.	.	.
4r	.	.	.	.	.	.
=69	=69	=69	=69	=69	=69	=69
4c	Stroke	1Dm	.	voice	.	D:min
4d	me.	.	.	.	.	.
8f	Stroke	.	.	.	.	.
8d	me.	.	.	.	.	.
4r	.	.	.	.	.	.
=70	=70	=70	=70	=70	=70	=70
8~d	Stroke!.	1Dm	.	voice	.	D:min
8r	.	.	.	.	.	.
4r	.	.	.	.	.	.
8~d	Stroke!.	.	.	.	.	.
8r	.	.	.	.	.	.
4r	.	.	.	.	.	.
=71	=71	=71	=71	=71	=71	=71
4c	Stroke	1Dm	newline	voice	.	D:min
4d	me.	.	.	.	.	.
8f	Stroke	.	.	.	.	.
8d	me.	.	.	.	.	.
4r	.	.	.	.	.	.
=72	=72	=72	=72	=72	=72	=72
8~d	Stroke!.	1Dm	.	voice	.	D:min
8r	.	.	.	.	.	.
4r	.	.	.	.	.	.
8~d	Stroke!.	.	.	.	.	.
8r	.	.	.	.	.	.
4r	.	.	.	.	.	.
=73	=73	=73	=73	=73	=73	=73
4c	Stroke	1Dm	.	voice	.	D:min
4d	me.	.	.	.	.	.
8f	Stroke	.	.	.	.	.
8d	me.	.	.	.	.	.
4r	.	.	.	.	.	.
=74	=74	=74	=74	=74	=74	=74
8~d	Stroke!.	1Dm	.	voice	.	D:min
8r	.	.	.	.	.	.
16~a	Do	.	.	.	.	.
8.~f	it!.	.	.	.	.	.
2r	.	.	.	.	.	.
=75	=75	=75	=75	=75	=75	=75
*>Letter>D	*>Letter>D	*>Letter>D	*>Letter>D	*>Letter>D	*>Letter>D	*>Letter>D
*>Label>Chorus	*>Label>Chorus	*>Label>Chorus	*>Label>Chorus	*>Label>Chorus	*>Label>Chorus	*>Label>Chorus
4c	Stroke	4CM	newline	voice	.	C:maj
4d	me.	2.Dm	.	voice	.	D:min
8f	Stroke	.	.	.	.	.
8d	me.	.	.	.	.	.
4r	.	.	.	.	.	.
=76	=76	=76	=76	=76	=76	=76
8~d	Stroke!.	2Dm	.	voice	.	D:min
8r	.	.	.	.	.	.
4r	.	.	.	.	.	.
2r	.	4Gm	.	voice	.	G:5/4
.	.	4Gm	.	voice	.	G:5
=77	=77	=77	=77	=77	=77	=77
4c	Stroke	4CM	.	voice	.	C:maj
4d	me.	2.Dm	.	voice	.	D:min
8f	Stroke	.	.	.	.	.
8d	me.	.	.	.	.	.
16~a	Keep	.	.	.	.	.
8.~f	on!.	.	.	.	.	.
=78	=78	=78	=78	=78	=78	=78
8~d	Stroke!.	2Dm	.	voice	.	D:min
8r	.	.	.	.	.	.
4r	.	.	.	.	.	.
2r	.	4Gm	.	voice	.	G:5
.	.	4FM	.	voice	.	F:5
=79	=79	=79	=79	=79	=79	=79
4c	Stroke	4CM	newline	voice	.	C:maj
4d	me.	2.Dm	.	voice	.	D:min
8f	Stroke	.	.	.	.	.
8d	me.	.	.	.	.	.
16g#	Hang	.	.	.	.	.
16a	_	.	.	.	.	.
16a	on	.	.	.	.	.
16a	a	.	.	.	.	.
=80	=80	=80	=80	=80	=80	=80
8~d	Stroke!.	2Dm	.	voice	.	D:min
8r	.	.	.	.	.	.
4r	.	.	.	.	.	.
2r	.	4Gm	.	voice	.	G:5/4
.	.	4Gm	.	voice	.	G:5
=81	=81	=81	=81	=81	=81	=81
4c	Stroke	4CM	.	voice	.	C:maj
4d	me.	2.Dm	.	voice	.	D:min
8f	Stroke	.	.	.	.	.
8d	me.	.	.	.	.	.
8r	.	.	.	.	.	.
16r	.	.	.	.	.	.
16g#	Say	.	.	.	.	.
=82	=82	=82	=82	=82	=82	=82
8a	_	2Dm	.	voice	.	D:min
16g	you're	.	.	.	.	.
16f	a	.	.	.	.	.
16g	win-	.	.	.	.	.
16f	-ner;	.	.	.	.	.
16d	but	.	.	.	.	.
[16f	man	.	.	.	.	.
16f]	_	4Gm	.	voice	.	G:5
16d	you're	.	.	.	.	.
16c	just	.	.	.	.	.
16A	a	.	.	.	.	.
16c	sin-	4FM	.	voice	.	F:5
16A	-ner	.	.	.	.	.
8F	now.	.	.	.	.	.
*-	*-	*-	*-	*-	*-	*-
!!!BillboardChartDate: 1981/05/16
!!!BillboardPeak: 17
!!!BillboardWeeksOnChart: 20
!!!COC: Billy Squier
!!!EMD: Original transcription was in augmentation. Also, the wrong number of measures at the beginning. I've fixed these things.
!!!EMD: The funky groove part is marked as alternating Dm <-> C every beat...but I'm not sure about that.
!!!ENC: Nathaniel Condit-Schultz
!!!EST: Awating manual error checking and editing.
!!!OTL: The Stroke
!!!RDF**chordsym: original McGill chord annotation + (implied pitch class set, with bass pitch in first position)
!!!RDF**harmony: **recip + pitch class of root + harmonic quality
!!!RDF**leadinstrument: original McGill primary instrumentation annotation
!!!RDF**phrase: newline = linebreak in original McGill transcription
!!!RDF**timestamp: McGill audio timestamp in seconds
!!!RDT: 2017/01/12/
!!!SampleActualRank: 84
!!!SampleID#: 0963
!!!SampleTargetRank: 82
